X: 2
T: Behind The Bush In The Garden
R: jig
M: 6/8
L: 1/8
K: Amin
c2 B AGE | c2 B AGE | c2 E EDE | G2 G- G2 A |c2 d e2 a | age ded | c2 A BA^G | A3 A2 :|c2 A c2 d | eag efd | e2 A c2 d | e2 G G2 A |c2 d e2 a | g2 e ded | c2 A BA/G/E | A3 A2 :|


Tune 1888	Setting 15319

